shape-plus-outline.svg

<svg fill="currentColor" viewBox="0 0 24 24"><path d="M11 11V2H2v9m2-2V4h5v5m11-2.5C20 7.9 18.9 9 17.5 9S15 7.9 15 6.5 16.11 4 17.5 4 20 5.11 20 6.5M6.5 14 2 22h9m-3.42-2H5.42l1.08-1.92M22 6.5C22 4 20 2 17.5 2S13 4 13 6.5s2 4.5 4.5 4.5S22 9 22 6.5M19 17v-3h-2v3h-3v2h3v3h2v-3h3v-2Z"/></svg>

<svg  viewBox="0 0 24 24" fill="currentColor"><path  d="M11 11V2H2V11M4 9V4H9V9M20 6.5C20 7.9 18.9 9 17.5 9S15 7.9 15 6.5 16.11 4 17.5 4 20 5.11 20 6.5M6.5 14L2 22H11M7.58 20H5.42L6.5 18.08M22 6.5C22 4 20 2 17.5 2S13 4 13 6.5 15 11 17.5 11 22 9 22 6.5M19 17V14H17V17H14V19H17V22H19V19H22V17Z"/></svg>
